dist/img/svg/hand_break.svg

<svg width="25" height="24" viewBox="0 0 25 24" fill="none" xmlns="http://www.w3.org/2000/svg">
<path fill-rule="evenodd" clip-rule="evenodd" d="M2.15315 10.5228L7.11823 5.64197C7.31277 5.45072 7.62471 5.45072 7.81926 5.64197L8.81689 6.62268L3.18715 12.2524L2.15315 11.236C1.95384 11.04 1.95383 10.7188 2.15315 10.5228ZM4.25688 13.304L9.54191 18.4994C10.7915 19.7278 12.7571 19.8428 14.1414 18.7685L16.715 16.7711C17.4323 16.2144 17.4944 15.153 16.8469 14.5165L15.7932 13.4806C15.5238 13.2468 15.1436 13.1705 14.7976 13.2957L14.2874 11.8851C15.2058 11.5529 16.2205 11.7885 16.8979 12.4604L16.8965 12.4618L17.8984 13.4468C18.3383 13.8792 18.6145 14.4097 18.7311 14.9653L20.647 13.2078L15.1407 7.7015L10.3999 12.3619C10.2174 12.5413 10.2174 12.8355 10.3999 13.0149C10.5255 13.1384 10.7109 13.1788 10.8765 13.1189L14.2874 11.8851L14.7976 13.2957L11.3868 14.5295C10.6783 14.7857 9.8856 14.6127 9.34832 14.0846C8.56789 13.3174 8.56789 12.0594 9.34832 11.2922L11.4577 9.21867L9.88662 7.67427L4.25688 13.304ZM12.5275 8.16696L8.87081 4.57228C8.09262 3.80729 6.84487 3.80729 6.06668 4.57228L1.1016 9.45314C0.304351 10.2369 0.304351 11.5219 1.1016 12.3057L8.49036 19.5691C10.2756 21.324 13.0834 21.4883 15.0611 19.9535L17.6346 17.9561C17.7945 17.8321 17.938 17.6956 18.0652 17.549L18.0526 17.6233L23.8516 12.3037C24.6955 11.5296 24.7183 10.2064 23.9017 9.40365L18.9877 4.57295C18.2095 3.80796 16.9617 3.80796 16.1835 4.57295L12.5275 8.16696ZM21.7534 12.1929L16.2104 6.64991L17.2351 5.64264C17.4296 5.45139 17.7416 5.4514 17.9361 5.64264L22.8502 10.4733C23.0543 10.674 23.0486 11.0048 22.8376 11.1984L21.7534 12.1929Z" fill="currentColor"/>
</svg>

<svg width="25" height="24" viewBox="0 0 25 24" fill="none" xmlns="http://www.w3.org/2000/svg"><path fill-rule="evenodd" clip-rule="evenodd" d="M2.153 10.523l4.965-4.881a.5.5 0 01.701 0l.998.98-5.63 5.63-1.034-1.016a.5.5 0 010-.713zm2.104 2.781l5.285 5.195a3.5 3.5 0 004.6.27l2.573-1.998a1.5 1.5 0 00.132-2.255l-1.054-1.035a1 1 0 00-.995-.185l-.51-1.41a2.5 2.5 0 012.61.574l-.002.002 1.002.985c.44.432.716.963.833 1.518l1.916-1.757-5.506-5.506-4.741 4.66a.458.458 0 00.476.757l3.411-1.234.51 1.41-3.41 1.235a1.958 1.958 0 01-2.039-3.238l2.11-2.073-1.571-1.545-5.63 5.63zm8.27-5.137L8.871 4.572a2 2 0 00-2.804 0L1.102 9.453a2 2 0 000 2.853l7.388 7.263a5 5 0 006.571.384l2.574-1.997c.16-.124.303-.26.43-.407l-.012.074 5.799-5.32a2 2 0 00.05-2.9l-4.914-4.83a2 2 0 00-2.805 0l-3.655 3.594zm9.226 4.026L16.21 6.65l1.025-1.007a.5.5 0 01.701 0l4.914 4.83a.5.5 0 01-.012.725l-1.085.995z" fill="currentColor"/></svg>
